usr/share/icons/big-icons/symbolic/actions/filename-initial-amarok.svg

<svg xmlns="http://www.w3.org/2000/svg" viewBox="0 0 16 16">
  <defs id="defs3051">
    <style type="text/css" id="current-color-scheme">
      .ColorScheme-Text {
        color:#eff0f1;
      }
      </style>
  </defs>
 <path style="fill:currentColor;fill-opacity:1;stroke:none" 
     d="M 9 3 L 9 13 L 10 13 L 10 12.232422 A 3 3 0 0 0 12 13 A 3 3 0 0 0 15 10 A 3 3 0 0 0 12 7 A 3 3 0 0 0 10 7.7675781 L 10 3 L 9 3 z M 3.8964844 3.0058594 L 1.0078125 13.005859 L 2.1757812 13.005859 L 3.0078125 10.005859 L 6.0078125 10.005859 L 6.8417969 13.005859 L 8.0078125 13.005859 L 5.3632812 3.0058594 L 3.8964844 3.0058594 z M 4.6289062 4.5566406 L 5.7226562 8.7207031 L 3.4199219 8.7207031 L 4.6289062 4.5566406 z M 12 8 A 2 2 0 0 1 14 10 A 2 2 0 0 1 12 12 A 2 2 0 0 1 10 10 A 2 2 0 0 1 12 8 z "
     class="ColorScheme-Text"
     />
</svg>

<svg xmlns="http://www.w3.org/2000/svg" viewBox="0 0 16 16">
<defs id="defs3051">
<style id="current-color-scheme" type="text/css">
.ColorScheme-Text{color:#fcfcfc}
</style>
</defs>
<path d="M9 3v10h1v-.768A3 3 0 0 0 12 13a3 3 0 0 0 3-3 3 3 0 0 0-3-3 3 3 0 0 0-2 .768V3zm-5.104.006-2.888 10h1.168l.832-3h3l.834 3h1.166l-2.645-10zm.733 1.55 1.094 4.165H3.42zM12 8a2 2 0 0 1 2 2 2 2 0 0 1-2 2 2 2 0 0 1-2-2 2 2 0 0 1 2-2" class="ColorScheme-Text" style="fill:currentColor;fill-opacity:1;stroke:none"/>
</svg>
